X: 281
T: Grande Valse No. 3 Op. 34
C: Fryderyk Chopin
%%abc-version 2.0
%%abcx-abcm2ps-target-version 5.9.1 (29 Sep 2008)
%%abc-creator hum2abc beta
%%abcx-conversion-date 2021/10/03 11:23:54
%%abc-edited-by Jędrzej Mróz
%%abc-edited-by Mateusz Mrugas
%%abc-edited-by Leszek Kubiak
%%abcx-initial-encoding-date 2018-08-06
%%humdrum-veritas 2148799683
%%humdrum-veritas-data 453932233
%%linebreak <none>
%%barnumbers 0
L: 1/4
M: 3/4
N: Derived from 034_3-1a-Sm-003.krn
P: Trois Valses Brillantes pour le piano
%%staves {1 2}
V: 1 clef=treble
V: 2 clef=bass
K: F
[V:1] !accent![c3G3C3] | 
[V:2] [E3B,3G,3C,3] | 
[V:1] !accent![c3G3C3] | 
[V:2] [E3B,3G,3C,3] | 
[V:1] !accent![cGC]>C!accent!C | 
[V:2] [EB,G,C,]zz | 
[V:1] !accent![c3G3C3] | 
[V:2] [E3B,3G,3C,3] | 
[V:1] [cGC]>CC | 
[V:2] [EB,G,C,]zz | 
[V:1] [cGC]>CC | 
[V:2] [EB,G,C,]zz | 
[V:1] [cGC]>CC | 
[V:2] [EB,G,C,]zz | 
[V:1] [cGC]>CC | 
[V:2] [EB,G,C,]zz | 
[V:1] c/_d/=B/c/d/B/ | 
[V:2] [EB,G,C,]zz | 
[V:1] c/_d/=B/c/d/c/ | 
[V:2] z3 | 
[V:1] ^c/d/^B/c/d/B/ | 
[V:2] z3 | 
[V:1] ^c/d/^B/c/d/c/ | 
[V:2] z3 | 
[V:1] d/_e/^c/d/e/d/ | 
[V:2] z3 | 
[V:1] _e/_f/d/e/f/e/ | 
[V:2] z3 | 
[V:1] =e/=f/^d/e/f/e/ | 
[V:2] z3 | 
[V:1] f/_g/f/^f/=g/^g/ | 
[V:2] z3 | 
[V:1] a/g/f/c/e/d/ | 
[V:2] x[FCA,][FDB,] & F,3 | 
[V:1] c/A/a/g/f/d/ | 
[V:2] x[FCA,][FDB,] & F,3 | 
[V:1] e/d/c/A/a/g/ | 
[V:2] x[FCA,][FDB,] & F,3 | 
[V:1] f/d/e/d/c/A/ | 
[V:2] x[FCA,][FCA,] & F,3 | 
[V:1] e/d/c/G/e/d/ | 
[V:2] C,[ECB,][ECB,] | 
[V:1] c/A/e/d/c/G/ | 
[V:2] C,[ECB,][ECB,] | 
[V:1] !mordent!F/E/F/A/c/e/ | 
[V:2] F,,[CA,][CA,] | 
[V:1] f/a/c'/e'/f'/c'/ | 
[V:2] F,[K:clef=treble][AC][AC] | 
[V:1] a'/g'/f'/c'/e'/d'/ | 
[V:2] F,[AC][BD] | 
[V:1] c'/a/a'/g'/f'/d'/ | 
[V:2] F,[AC][BD] | 
[V:1] e'/d'/c'/a/a'/g'/ | 
[V:2] F,[AC][BD] | 
[V:1] f'/d'/e'/d'/c'/a/ | 
[V:2] F,[AC][FA,][K:clef=bass] | 
[V:1] e'/d'/c'/g/e'/d'/ | 
[V:2] C,[ECB,][ECB,] | 
[V:1] c'/a/e'/d'/c'/g/ | 
[V:2] C,[K:clef=treble][ACB,][GCB,][K:clef=bass] | 
[V:1] !mordent!f/e/f/a/c'/f'/ | 
[V:2] F,[FA,][FA,] | 
[V:1] f'zc | 
[V:2] F,,zz | 
[V:1] a/g/f/c/e/d/ | 
[V:2] x[FCA,][FDB,] & F,3 | 
[V:1] c/A/a/g/f/d/ | 
[V:2] x[FCA,][FDB,] & F,3 | 
[V:1] e/d/c/A/a/g/ | 
[V:2] x[FCA,][FDB,] & F,3 | 
[V:1] f/d/e/d/c/A/ | 
[V:2] x[FCA,][FCA,] & F,3 | 
[V:1] e/d/c/G/e/d/ | 
[V:2] C,[ECB,][ECB,] | 
[V:1] c/A/e/d/c/G/ | 
[V:2] C,[ECB,][ECB,] | 
[V:1] !mordent!F/E/F/A/c/e/ | 
[V:2] F,,[CA,][CA,] | 
[V:1] f/a/c'/e'/f'/c'/ | 
[V:2] F,[K:clef=treble][AC][AC] | 
[V:1] a'/g'/f'/c'/e'/d'/ | 
[V:2] F,[AC][BD] | 
[V:1] c'/a/a'/g'/f'/d'/ | 
[V:2] F,[AC][BD] | 
[V:1] e'/d'/c'/a/a'/g'/ | 
[V:2] F,[AC][BD] | 
[V:1] f'/d'/e'/d'/c'/a/ | 
[V:2] F,[AC][FA,][K:clef=bass] | 
[V:1] e'/d'/c'/g/e'/d'/ | 
[V:2] C,[ECB,][ECB,] | 
[V:1] c'/a/e'/d'/c'/g/ | 
[V:2] C,[K:clef=treble][ACB,][GCB,][K:clef=bass] | 
[V:1] !mordent!f/e/f/a/c'/f'/ | 
[V:2] F,[FA,][FA,] | 
[V:1] f''zf- | 
[V:2] F,,zz | 
[V:1] f2_e | 
[V:2] G,,[EB,E,][EB,E,] | 
[V:1] z!mordent!_e/d/e/f/ | 
[V:2] A,,[_ECF,][ECF,] | 
[V:1] _e2d | 
[V:2] B,,[DB,F,][DB,F,] | 
[V:1] z!mordent!c/=B/c/G/ | 
[V:2] _E,,[CG,_E,][CG,E,] | 
[V:1] BFz | 
[V:2] F,,[DF,][DF,] | 
[V:1] zF/G/A/B/ | 
[V:2] F,,[DB,F,][DB,F,] | 
[V:1] =B/c/d/c/g/f/ | 
[V:2] F,,[_EA,F,][EA,F,] | 
[V:1] ^c/d/_e/d/c'/b/ | 
[V:2] B,,[DB,F,][DB,F,] | 
[V:1] f2_e | 
[V:2] G,,[_EB,_E,][EB,E,] | 
[V:1] z!mordent!_e/d/e/f/ | 
[V:2] A,,[_ECF,][ECF,] | 
[V:1] !accent!_e2d | 
[V:2] ^F,,[DA,^F,][DA,F,] | 
[V:1] z!mordent!d/^c/d/_A/ | 
[V:2] =F,,[D=B,_A,F,][DB,A,F,] | 
[V:1] cGz | 
[V:2] _E,,[CG,_E,][CG,E,] | 
[V:1] zF/G/A/B/ | 
[V:2] F,,[DB,F,][DB,F,] | 
[V:1] =B/c/d/c/g/f/ | 
[V:2] F,,[_EA,F,][EA,F,] | 
[V:1] .[bB]d/_e/f/g/ | 
[V:2] B,,[DB,F,]z | 
[V:1] f2_e | 
[V:2] G,,[_EB,_E,][EB,E,] | 
[V:1] z!mordent!_e/d/e/f/ | 
[V:2] A,,[_ECF,][ECF,] | 
[V:1] _e2d | 
[V:2] B,,[DB,F,][DB,F,] | 
[V:1] z!mordent!c/=B/c/G/ | 
[V:2] _E,,[CG,_E,][CG,E,] | 
[V:1] BFz | 
[V:2] F,,[DF,][DF,] | 
[V:1] zF/G/A/B/ | 
[V:2] F,,[DB,F,][DB,F,] | 
[V:1] =B/c/d/c/g/f/ | 
[V:2] F,,[_EA,F,][EA,F,] | 
[V:1] ^c/d/_e/d/c'/b/ | 
[V:2] B,,[DB,F,][DB,F,] | 
[V:1] f2_e | 
[V:2] G,,[_EB,_E,][EB,E,] | 
[V:1] z!mordent!_e/d/e/f/ | 
[V:2] A,,[_ECF,][ECF,] | 
[V:1] !accent!_e2d | 
[V:2] ^F,,[DA,^F,][DA,F,] | 
[V:1] z!mordent!d/^c/d/_A/ | 
[V:2] =F,,[D=B,_A,F,][DB,A,F,] | 
[V:1] cGz | 
[V:2] _E,,[CG,_E,][CG,E,] | 
[V:1] zF/G/A/B/ | 
[V:2] F,,[DB,F,][DB,F,] | 
[V:1] =B/c/d/c/g/f/ | 
[V:2] F,,[_EA,F,][EA,F,] | 
[V:1] .[bB]zz | 
[V:2] B,,[DB,F,]z | 
[V:1] _e3 | 
[V:2] F,,[_EB,_G,][EB,G,] | 
[V:1] F3 | 
[V:2] F,,[_EA,F,][EA,F,] | 
[V:1] {/D}.F{/F}.B{/B}.d | 
[V:2] B,,[DB,F,][DB,F,] | 
[V:1] {/d}.f{/f}.b{/b}.g | 
[V:2] [DB,F,][DB,F,][DB,F,] | 
[V:1] _e3 | 
[V:2] F,,[_EB,_G,][EB,G,] | 
[V:1] F3 | 
[V:2] F,,[_EA,F,][EA,F,] | 
[V:1] {/c'}b{/b}g{/g}f | 
[V:2] B,,[DB,F,][DB,F,] | 
[V:1] {/f}d{/d}B{/B}G | 
[V:2] [DB,F,][DB,F,][DB,F,] | 
[V:1] _e3 | 
[V:2] F,,[_EB,_G,][EB,G,] | 
[V:1] F3 | 
[V:2] F,,[_EA,F,][EA,F,] | 
[V:1] {/D}.F{/F}.B{/B}.d | 
[V:2] B,,[DB,F,][DB,F,] | 
[V:1] {/d}.f{/f}.b{/b}g | 
[V:2] x[D2B,2G,2F,2] & [DB,G,F,]zD, | 
[V:1] {/d=e}!trill!e3{/de} | 
[V:2] C,[K:clef=treble][ACB,-][GCB,][K:clef=bass] | 
[V:1] .fA/B/c | 
[V:2] x[EA,][DA,] & F,3 | 
[V:1] !trill!=e3{/de} | 
[V:2] C,[K:clef=treble][ACB,-][GCB,][K:clef=bass] | 
[V:1] f=e/g/f | 
[V:2] x[GCA,][FCA,] & F,3 | 
[V:1] [_e'3_e3] | 
[V:2] F,,[_EB,_G,][EB,G,] | 
[V:1] [f2F2]z | 
[V:2] F,,[_EA,F,][EA,F,] | 
[V:1] {/d}.f{/f}.b{/b}.d' | 
[V:2] B,,[DB,F,][DB,F,] | 
[V:1] {/d'}.f'{/f'}.b'{/b'}.g' | 
[V:2] [DB,F,][DB,F,][DB,F,] | 
[V:1] [_e'3_e3] | 
[V:2] F,,[_EB,_G,][EB,G,] | 
[V:1] [f2F2]z | 
[V:2] F,,[_EA,F,][EA,F,] | 
[V:1] {/c''}b'{/b'}g'{/g'}f' | 
[V:2] B,,[DB,F,][DB,F,] | 
[V:1] {/f'}d'{/d'}b{/b}g | 
[V:2] [DB,F,][DB,F,][DB,F,] | 
[V:1] [_e'3_e3] | 
[V:2] F,,[_EB,_G,][EB,G,] | 
[V:1] [f2F2]z | 
[V:2] F,,[_EA,F,][EA,F,] | 
[V:1] {/D}.F{/F}.B{/B}.d | 
[V:2] B,,[DB,F,][DB,F,] | 
[V:1] {/d}.f{/f}.b{/b}.g | 
[V:2] x[D2B,2G,2F,2] & [DB,G,F,]xD, | 
[V:1] {/=d=e}!trill!e3{/de} | 
[V:2] C,[K:clef=treble][ACB,-][GCB,] | 
[V:1] fA/B/c | 
[V:2] [K:clef=bass]x[EA,][DA,] & F,3 | 
[V:1] !trill!=e3{/^de} | 
[V:2] [K:clef=bass]C,[K:clef=treble][ACB,][GCB,][K:clef=bass] | 
[V:1] .f=e/g/f | 
[V:2] x[GCA,][FCA,] & F,3 | 
[V:1] _g3 | 
[V:2] _A,,[_GC_A,][GCA,] | 
[V:1] _A3 | 
[V:2] [_GC_A,][GCA,][GCA,] | 
[V:1] {/F}._A{/A}._d{/d}.f | 
[V:2] _D,[F_D_A,][FDA,] | 
[V:1] {/f}._a{/a}._d'{/d'}.b | 
[V:2] [F_D_A,][FDA,][FDA,] | 
[V:1] _g3 | 
[V:2] _A,,[_GC_A,][GCA,] | 
[V:1] _A3 | 
[V:2] [_GC_A,][GCA,][GCA,] | 
[V:1] {/_e'}_d'{/d'}b{/b}_a | 
[V:2] _D,[F_D_A,][FDA,] | 
[V:1] {/_a}f{/f}_d{/d}__B | 
[V:2] [F_D_A,][FDA,][FDA,] | 
[V:1] _g3 | 
[V:2] _A,,[_GC_A,][GCA,] | 
[V:1] _A3 | 
[V:2] [_GC_A,][GCA,][GCA,] | 
[V:1] {/F}._A{/A}._d{/d}.f | 
[V:2] _D,[F_D_A,][FA,] | 
[V:1] {/f}._a{/a}._d'{/d'}.c' | 
[V:2] [F_A,][FA,][FA,] | 
[V:1] !trill!=b3{/^ab} | 
[V:2] _D,[FG,][FG,] | 
[V:1] .c'e/f/g | 
[V:2] C,[ECG,][ECG,] | 
[V:1] !trill!=b3 | 
[V:2] C,[FDG,][FDG,] | 
[V:1] !trill!_b3 | 
[V:2] C,[ECB,G,][ECB,G,] | 
[V:1] a/g/f/c/e/d/ | 
[V:2] x[FCA,][FDB,] & F,3 | 
[V:1] c/A/a/g/f/d/ | 
[V:2] x[FCA,][FDB,] & F,3 | 
[V:1] e/d/c/A/a/g/ | 
[V:2] x[FCA,][FDB,] & F,3 | 
[V:1] f/d/e/d/c/A/ | 
[V:2] x[FCA,][FCA,] & F,3 | 
[V:1] e/d/c/G/e/d/ | 
[V:2] C,[ECB,][ECB,] | 
[V:1] c/A/e/d/c/G/ | 
[V:2] C,[ECB,][ECB,] | 
[V:1] !mordent!F/E/F/A/c/e/ | 
[V:2] .F,,[CA,][CA,] | 
[V:1] f/a/c'/e'/f'/c'/ | 
[V:2] F,[K:clef=treble][AC][AC] | 
[V:1] a'/g'/f'/c'/e'/d'/ | 
[V:2] F,[AC][BD] | 
[V:1] c'/a/a'/g'/f'/d'/ | 
[V:2] F,[AC][BD] | 
[V:1] e'/d'/c'/a/a'/g'/ | 
[V:2] F,[AC][BD] | 
[V:1] f'/d'/e'/d'/c'/a/ | 
[V:2] F,[AC][FA,][K:clef=bass] | 
[V:1] e'/d'/c'/g/e'/d'/ | 
[V:2] C,[ECB,][ECB,] | 
[V:1] c'/a/e'/d'/c'/g/ | 
[V:2] C,[K:clef=treble][ACB,][GCB,][K:clef=bass] | 
[V:1] f/a/_a/^f/a/g/ | 
[V:2] [FA,F,]zz | 
[V:1] =f/g/_g/=e/f/^f/ | 
[V:2] z3 | 
[V:1] !accent!=g3- | 
[V:2] F,,[_EA,F,][EA,F,] | 
[V:1] g/f/_e/A/d/c/ | 
[V:2] [_EA,F,][EF,][EF,] | 
[V:1] Bzz | 
[V:2] F,,[DB,F,][DB,E,] | 
[V:1] z3 | 
[V:2] [DB,G,][DB,F,][DD,] | 
[V:1] !accent!d3- | 
[V:2] F,,[B,E,C,][B,E,C,] | 
[V:1] d/c/B/E/A/G/ | 
[V:2] [B,E,C,][B,C,][B,C,] | 
[V:1] F/A/_A/^F/A/G/ | 
[V:2] F,,[A,C,][A,=B,,] | 
[V:1] E/G/_G/E/F/^F/ | 
[V:2] [A,D,][A,C,][A,A,,] | 
[V:1] !accent!=G3- | 
[V:2] F,,[C_E,][CE,] | 
[V:1] G/F/_E/A,/D/C/ | 
[V:2] [C_E,][CE,][CE,] | 
[V:1] =B,3- | 
[V:2] F,,[_A,D,][A,D,] | 
[V:1] B,3 | 
[V:2] [_A,_D,][A,D,][A,D,] | 
[V:1] z3 | 
[V:2] F,,[G,_D,][G,D,] | 
[V:1] z_D/C/B,/=E,/ | 
[V:2] z3 | 
[V:1] z3 | 
[V:2] z3 | 
[V:1] z3 | 
[V:2] z3 | 
[V:1] !accent!f3 | 
[V:2] [F,,F,,,][A,F,C,][A,F,C,] | 
[V:1] !accent!C3 | 
[V:2] [A,F,C,][A,F,C,][A,F,C,] | 
[V:1] C{/C}.F{/F}.A | 
[V:2] [A,F,C,][A,F,C,][A,F,C,] | 
[V:1] {/A}.c{/A}.f{/f}.^g | 
[V:2] [CA,F,C,][CA,F,C,][CA,F,C,] | 
[V:1] !accent!a3 | 
[V:2] [F,,F,,,][A,F,C,][A,F,C,] | 
[V:1] !accent!C3 | 
[V:2] [A,F,C,][A,F,C,][A,F,C,] | 
[V:1] {/F}.A{/A}.c{/c}.f | 
[V:2] [CA,F,C,][CA,F,C,][CA,F,C,] | 
[V:1] {/f}.a{/a}.c'{/c'}.f' | 
[V:2] [CA,F,C,][CA,F,C,][CA,F,C,] | 
[V:1] !tenuto!f''zz | 
[V:2] F,,,zz | 
[V:1] [afcA]zz | 
[V:2] [FCF,]zz | 
[V:1] [FA,]zz | 
[V:2] [C,F,,]zz | 
[V:1] [f'c'f]zz | 
[V:2] [AFCA,]zz | 
[V:1] !fermata![F3F,3] |]  
[V:2] !fermata![F,,3F,,,3] |]
